lunar-icon.svg

<svg width="40" height="40" viewBox="0 0 40 40" fill="none" xmlns="http://www.w3.org/2000/svg">
<g clip-path="url(#clip0_1_3)">
<path d="M0.174019 19.3257C0.0677791 22.3088 0.641614 25.208 1.7767 27.8425C2.39108 29.2687 4.19156 29.7236 5.40633 28.7558L11.7849 23.6742C13.2632 22.4968 12.8194 20.1453 11.0133 19.587L3.22003 17.1783C1.74595 16.7227 0.228537 17.7848 0.174019 19.3257Z" fill="url(#paint0_linear_1_3)"/>
<path d="M6.44706 5.51971C4.35092 7.47841 2.66297 9.9046 1.56422 12.6802C0.996679 14.1141 1.96122 15.6948 3.49401 15.8681L11.5997 16.7842C13.4778 16.9966 14.8274 15.0197 13.9447 13.3489L10.1382 6.13744C9.41339 4.76432 7.58215 4.45965 6.44706 5.51971Z" fill="url(#paint1_linear_1_3)"/>
<path d="M39.8476 20.6862C39.9539 17.7031 39.38 14.8038 38.2449 12.1694C37.6306 10.7431 35.8301 10.2882 34.6153 11.2561L28.2367 16.3376C26.7584 17.5151 27.2023 19.8665 29.0084 20.4248L36.8023 22.8336C38.2757 23.2892 39.7931 22.2277 39.8476 20.6862Z" fill="url(#paint2_linear_1_3)"/>
<path d="M34.5 6.4456C32.5408 4.34994 30.1141 2.66237 27.3379 1.56387C25.9036 0.996459 24.3226 1.96079 24.1493 3.49323L23.233 11.5971C23.0205 13.4747 24.9978 14.8241 26.669 13.9415L33.8821 10.1359C35.2555 9.41126 35.5603 7.57974 34.5 6.4456Z" fill="url(#paint3_linear_1_3)"/>
<path d="M33.5746 34.4921C35.6707 32.5334 37.3587 30.1072 38.4574 27.3317C39.0249 25.8978 38.0604 24.3171 36.5276 24.1438L28.4219 23.2277C26.5439 23.0153 25.1942 24.9921 26.077 26.6629L29.8834 33.8744C30.6075 35.2475 32.4395 35.5522 33.5746 34.4921Z" fill="url(#paint4_linear_1_3)"/>
<path d="M19.3454 39.8497C22.3299 39.9476 25.2278 39.3669 27.86 38.2251C29.2851 37.6066 29.7353 35.8059 28.7637 34.5935L23.6642 28.2296C22.4823 26.7545 20.1317 27.2045 19.5782 29.0115L17.1892 36.81C16.7376 38.2845 17.8035 39.7987 19.3454 39.8497Z" fill="url(#paint5_linear_1_3)"/>
<path d="M20.4302 11.0108L22.8394 3.2186C23.2952 1.74486 22.2335 0.227793 20.6916 0.173287C17.7078 0.0670718 14.8079 0.640776 12.1728 1.77561C10.7463 2.38984 10.2913 4.18992 11.2593 5.40441L16.342 11.7815C17.5198 13.2602 19.8717 12.8165 20.4302 11.0108Z" fill="url(#paint6_linear_1_3)"/>
<path d="M5.52166 33.5662C7.4808 35.6619 9.90755 37.3495 12.6838 38.448C14.118 39.0154 15.699 38.0511 15.8724 36.5186L16.7887 28.4148C17.0012 26.5371 15.0238 25.1878 13.3527 26.0704L6.13953 29.8759C4.7661 30.6006 4.46136 32.4321 5.52166 33.5662Z" fill="url(#paint7_linear_1_3)"/>
</g>
<defs>
<linearGradient id="paint0_linear_1_3" x1="39.4117" y1="15.1176" x2="1.76469" y2="27.7059" gradientUnits="userSpaceOnUse">
<stop stop-color="#DB00FF"/>
<stop offset="1" stop-color="#2E43F5"/>
</linearGradient>
<linearGradient id="paint1_linear_1_3" x1="39.4117" y1="15.1176" x2="1.76469" y2="27.7059" gradientUnits="userSpaceOnUse">
<stop stop-color="#DB00FF"/>
<stop offset="1" stop-color="#2E43F5"/>
</linearGradient>
<linearGradient id="paint2_linear_1_3" x1="39.4117" y1="15.1176" x2="1.76469" y2="27.7059" gradientUnits="userSpaceOnUse">
<stop stop-color="#DB00FF"/>
<stop offset="1" stop-color="#2E43F5"/>
</linearGradient>
<linearGradient id="paint3_linear_1_3" x1="39.4117" y1="15.1176" x2="1.76469" y2="27.7059" gradientUnits="userSpaceOnUse">
<stop stop-color="#DB00FF"/>
<stop offset="1" stop-color="#2E43F5"/>
</linearGradient>
<linearGradient id="paint4_linear_1_3" x1="39.4117" y1="15.1176" x2="1.76469" y2="27.7059" gradientUnits="userSpaceOnUse">
<stop stop-color="#DB00FF"/>
<stop offset="1" stop-color="#2E43F5"/>
</linearGradient>
<linearGradient id="paint5_linear_1_3" x1="39.4117" y1="15.1176" x2="1.76469" y2="27.7059" gradientUnits="userSpaceOnUse">
<stop stop-color="#DB00FF"/>
<stop offset="1" stop-color="#2E43F5"/>
</linearGradient>
<linearGradient id="paint6_linear_1_3" x1="39.4117" y1="15.1176" x2="1.76469" y2="27.7059" gradientUnits="userSpaceOnUse">
<stop stop-color="#DB00FF"/>
<stop offset="1" stop-color="#2E43F5"/>
</linearGradient>
<linearGradient id="paint7_linear_1_3" x1="39.4117" y1="15.1176" x2="1.76469" y2="27.7059" gradientUnits="userSpaceOnUse">
<stop stop-color="#DB00FF"/>
<stop offset="1" stop-color="#2E43F5"/>
</linearGradient>
<clipPath id="clip0_1_3">
<rect width="40" height="40" fill="white"/>
</clipPath>
</defs>
</svg>

<svg width="40" height="40" fill="none" xmlns="http://www.w3.org/2000/svg"><g clip-path="url(#a)"><path d="M.174 19.326a19.73 19.73 0 0 0 1.603 8.517 2.355 2.355 0 0 0 3.63.913l6.378-5.082c1.478-1.177 1.034-3.529-.772-4.087L3.22 17.178c-1.474-.455-2.991.607-3.046 2.148Z" fill="url(#b)"/><path d="M6.447 5.52a19.735 19.735 0 0 0-4.883 7.16c-.567 1.434.397 3.015 1.93 3.188l8.106.916c1.878.213 3.227-1.764 2.345-3.435l-3.807-7.212a2.355 2.355 0 0 0-3.69-.617Z" fill="url(#c)"/><path d="M39.848 20.686a19.73 19.73 0 0 0-1.603-8.517 2.355 2.355 0 0 0-3.63-.913l-6.378 5.082c-1.479 1.177-1.035 3.528.771 4.087l7.794 2.409c1.474.455 2.991-.606 3.046-2.148Z" fill="url(#d)"/><path d="M34.5 6.446a19.74 19.74 0 0 0-7.162-4.882c-1.434-.568-3.015.397-3.189 1.93l-.916 8.103c-.213 1.878 1.765 3.227 3.436 2.345l7.213-3.806a2.354 2.354 0 0 0 .618-3.69Z" fill="url(#e)"/><path d="M33.575 34.492a19.735 19.735 0 0 0 4.882-7.16c.568-1.434-.397-3.015-1.93-3.188l-8.105-.916c-1.878-.213-3.228 1.764-2.345 3.435l3.806 7.211a2.355 2.355 0 0 0 3.692.618Z" fill="url(#f)"/><path d="M19.345 39.85a19.749 19.749 0 0 0 8.515-1.625 2.354 2.354 0 0 0 .904-3.632l-5.1-6.363c-1.182-1.476-3.532-1.026-4.086.782L17.19 36.81c-.451 1.474.614 2.989 2.156 3.04Z" fill="url(#g)"/><path d="m20.43 11.01 2.41-7.791c.455-1.474-.607-2.991-2.148-3.046a19.743 19.743 0 0 0-8.52 1.603 2.354 2.354 0 0 0-.913 3.628l5.083 6.377c1.178 1.48 3.53 1.035 4.088-.77Z" fill="url(#h)"/><path d="M5.522 33.566a19.74 19.74 0 0 0 7.162 4.882c1.434.567 3.015-.397 3.188-1.93l.917-8.103c.212-1.878-1.765-3.227-3.436-2.345L6.14 29.876a2.354 2.354 0 0 0-.618 3.69Z" fill="url(#i)"/></g><defs><linearGradient id="b" x1="39.412" y1="15.118" x2="1.765" y2="27.706" gradientUnits="userSpaceOnUse"><stop stop-color="#DB00FF"/><stop offset="1" stop-color="#2E43F5"/></linearGradient><linearGradient id="c" x1="39.412" y1="15.118" x2="1.765" y2="27.706" gradientUnits="userSpaceOnUse"><stop stop-color="#DB00FF"/><stop offset="1" stop-color="#2E43F5"/></linearGradient><linearGradient id="d" x1="39.412" y1="15.118" x2="1.765" y2="27.706" gradientUnits="userSpaceOnUse"><stop stop-color="#DB00FF"/><stop offset="1" stop-color="#2E43F5"/></linearGradient><linearGradient id="e" x1="39.412" y1="15.118" x2="1.765" y2="27.706" gradientUnits="userSpaceOnUse"><stop stop-color="#DB00FF"/><stop offset="1" stop-color="#2E43F5"/></linearGradient><linearGradient id="f" x1="39.412" y1="15.118" x2="1.765" y2="27.706" gradientUnits="userSpaceOnUse"><stop stop-color="#DB00FF"/><stop offset="1" stop-color="#2E43F5"/></linearGradient><linearGradient id="g" x1="39.412" y1="15.118" x2="1.765" y2="27.706" gradientUnits="userSpaceOnUse"><stop stop-color="#DB00FF"/><stop offset="1" stop-color="#2E43F5"/></linearGradient><linearGradient id="h" x1="39.412" y1="15.118" x2="1.765" y2="27.706" gradientUnits="userSpaceOnUse"><stop stop-color="#DB00FF"/><stop offset="1" stop-color="#2E43F5"/></linearGradient><linearGradient id="i" x1="39.412" y1="15.118" x2="1.765" y2="27.706" gradientUnits="userSpaceOnUse"><stop stop-color="#DB00FF"/><stop offset="1" stop-color="#2E43F5"/></linearGradient><clipPath id="a"><path fill="#fff" d="M0 0h40v40H0z"/></clipPath></defs></svg>
